static/img/kroki/4f7a7dd717746f6f777594fdd0f998f5.svg

<?xml version="1.0" encoding="us-ascii" standalone="no"?><svg xmlns="http://www.w3.org/2000/svg" xmlns:xlink="http://www.w3.org/1999/xlink" contentStyleType="text/css" height="152px" preserveAspectRatio="none" style="width:219px;height:152px;" version="1.1" viewBox="0 0 219 152" width="219px" zoomAndPan="magnify"><defs/><g><!--class gcp_node_group--><g id="elem_gcp_node_group"><rect codeLine="22" fill="#3D176E" height="39.7891" id="gcp_node_group" rx="2.5" ry="2.5" style="stroke:#000D19;stroke-width:0.5;" width="177" x="21" y="106.79"/><ellipse cx="36" cy="126.6845" fill="#ADD1B2" rx="11" ry="11" style="stroke:#181818;stroke-width:1.0;"/><path d="M38.9688,132.3252 Q38.3906,132.622 37.75,132.7627 Q37.1094,132.9189 36.4063,132.9189 Q33.9063,132.9189 32.5781,131.2783 Q31.2656,129.622 31.2656,126.497 Q31.2656,123.372 32.5781,121.7158 Q33.9063,120.0595 36.4063,120.0595 Q37.1094,120.0595 37.75,120.2158 Q38.4063,120.372 38.9688,120.6689 L38.9688,123.3877 Q38.3438,122.8095 37.75,122.5439 Q37.1563,122.2627 36.5313,122.2627 Q35.1875,122.2627 34.5,123.3408 Q33.8125,124.4033 33.8125,126.497 Q33.8125,128.5908 34.5,129.6689 Q35.1875,130.7314 36.5313,130.7314 Q37.1563,130.7314 37.75,130.4658 Q38.3438,130.1845 38.9688,129.6064 L38.9688,132.3252 Z " fill="#000000"/><text fill="#D9B8FF" font-family="Helvetica" font-size="17" lengthAdjust="spacing" textLength="135" x="55" y="132.5698">gcp_node_group</text></g><!--class gcp_node_template--><g id="elem_gcp_node_template"><rect codeLine="24" fill="#3D176E" height="39.7891" id="gcp_node_template" rx="2.5" ry="2.5" style="stroke:#000D19;stroke-width:0.5;" width="205" x="7" y="7"/><ellipse cx="22" cy="26.8945" fill="#ADD1B2" rx="11" ry="11" style="stroke:#181818;stroke-width:1.0;"/><path d="M24.9688,32.5352 Q24.3906,32.832 23.75,32.9727 Q23.1094,33.1289 22.4063,33.1289 Q19.9063,33.1289 18.5781,31.4883 Q17.2656,29.832 17.2656,26.707 Q17.2656,23.582 18.5781,21.9258 Q19.9063,20.2695 22.4063,20.2695 Q23.1094,20.2695 23.75,20.4258 Q24.4063,20.582 24.9688,20.8789 L24.9688,23.5977 Q24.3438,23.0195 23.75,22.7539 Q23.1563,22.4727 22.5313,22.4727 Q21.1875,22.4727 20.5,23.5508 Q19.8125,24.6133 19.8125,26.707 Q19.8125,28.8008 20.5,29.8789 Q21.1875,30.9414 22.5313,30.9414 Q23.1563,30.9414 23.75,30.6758 Q24.3438,30.3945 24.9688,29.8164 L24.9688,32.5352 Z " fill="#000000"/><text fill="#D9B8FF" font-family="Helvetica" font-size="17" lengthAdjust="spacing" textLength="163" x="41" y="32.7798">gcp_node_template</text></g><!--link gcp_node_template to gcp_node_group--><g id="link_gcp_node_template_gcp_node_group"><path codeLine="26" d="M109.5,47.22 C109.5,64.36 109.5,83.27 109.5,100.41 " fill="none" id="gcp_node_template-to-gcp_node_group" style="stroke:#1A83AF;stroke-width:2.0;"/><polygon fill="#1A83AF" points="109.5,106.41,113.5,97.41,109.5,101.41,105.5,97.41,109.5,106.41" style="stroke:#1A83AF;stroke-width:2.0;"/></g><!--SRC=[XP91IyD048Nl_HKBEHSIWoQv235Gz5B4UXCfc-niiYJP3RDJInN_kqshicviUvttyUQzOHebW44_q8xrq9U0TcPRfGUEl6SvejaMfZF80YcvZ1DVN1XD5u4bxu7TG_S6f2hk4y-DgbeDrh8hHxhZLLkZsMXnj2VaskubqEHGHSUjpObGbHi29up8obHAd_HDWrX4oGrCC8C2y1i9mr14cOzSN7Mszo-nKk_08lTeIqCmYJbPSQ3EfXm99-Iaw8z-CkCZ5qBfcbqxiwTZ9jI0V-QhXWkp7Md9E-kkiGG8XdO359DMaAL29l_23wVWQhmSgwjXhOs0zOWCx6FswGkqV-cE4noqwNJ-4aHv6kUBr_cjv_O5]--></g></svg>

<svg xmlns="http://www.w3.org/2000/svg" width="219" height="152" viewBox="0 0 219 152"><rect width="177" height="39.789" x="21" y="106.79" fill="#3D176E" rx="2.5" ry="2.5" style="stroke:#000d19;stroke-width:.5"/><circle cx="36" cy="126.684" r="11" fill="#ADD1B2" style="stroke:#181818;stroke-width:1"/><path d="M38.969 132.325q-.578.297-1.219.438-.64.156-1.344.156-2.5 0-3.828-1.64-1.312-1.657-1.312-4.782t1.312-4.781q1.328-1.656 3.828-1.656.703 0 1.344.156.656.156 1.219.453v2.719q-.625-.579-1.219-.844-.594-.281-1.219-.281-1.343 0-2.031 1.078-.687 1.062-.687 3.156t.687 3.172q.688 1.062 2.031 1.062.625 0 1.219-.265.594-.281 1.219-.86z"/><text x="55" y="132.57" fill="#D9B8FF" font-family="Helvetica" font-size="17" textLength="135">gcp_node_group</text><rect width="205" height="39.789" x="7" y="7" fill="#3D176E" rx="2.5" ry="2.5" style="stroke:#000d19;stroke-width:.5"/><circle cx="22" cy="26.895" r="11" fill="#ADD1B2" style="stroke:#181818;stroke-width:1"/><path d="M24.969 32.535q-.578.297-1.219.438-.64.156-1.344.156-2.5 0-3.828-1.64-1.312-1.657-1.312-4.782t1.312-4.781q1.328-1.656 3.828-1.656.703 0 1.344.156.656.156 1.219.453v2.719q-.625-.578-1.219-.844-.594-.281-1.219-.281-1.343 0-2.031 1.078-.687 1.062-.687 3.156t.687 3.172q.688 1.062 2.031 1.062.625 0 1.219-.265.594-.281 1.219-.86z"/><text x="41" y="32.78" fill="#D9B8FF" font-family="Helvetica" font-size="17" textLength="163">gcp_node_template</text><path fill="none" d="M109.5 47.22v53.19" style="stroke:#1a83af;stroke-width:2"/><path fill="#1A83AF" d="m109.5 106.41 4-9-4 4-4-4z" style="stroke:#1a83af;stroke-width:2"/></svg>
